X:1
T:[ID 2-40b]
T:[ID 2-40b]
T:Bezeichnung standardisiert: Menuett Men\"uet 6.
T:Urheber unbekannt Datum in der hier transkribierten schriftlichen Quelle: 1767
C:Urheber unbekannt
C:Datum in der hier transkribierten schriftlichen Quelle: 1767
L:1/8
M:3/4
K:C
V:1 treble 
V:1
 ce g2 (3fga | g2 f2 e2 | (3def edcB |{B} c4 d2 | ec e2 g2 | ^fd f2 a2 | gedcBA |{A} G6 :: %8
 GB d2 (3cde | d2 c2 B2 | Gd f2 e2 | e4 d2 | Gc (3cBc (3cBc | Ec (3cBc (3cBc | (3AGF E2 D2 | %15
{D} C6 :| %16

